X: 1
T: String Quartet in E\b Major opus 33 no 2 mvt 2
C: Franz Joseph Haydn
%%abc-version 2.0
%%abcx-abcm2ps-target-version 5.9.1 (29 Sep 2008)
%%abc-creator hum2abc beta
%%abcx-conversion-date 2021/02/14 14:38:09
%%abc-copyright Copyright (c) 1994, 2000 Center for Computer Assisted Research in the Humanities
%%abc-edited-by Frances Bennion
%%abcx-initial-encoding-date 1997/04/15
%%gracespace 0 6 6
%%humdrum-veritas 3413286159
%%humdrum-veritas-data 66494949
%%linebreak <none>
%%barnumbers 0
L: 1/8
M: 3/4
N: Derived from op33n2-02.krn
Q: "Scherzo: Allegro"
%%staves [1 2 3 4]
V: 1
V: 2
V: 3 clef=alto
V: 4 clef=bass
K: Eb
[V:1]z4 de [I:setbarnb1]|
[V:2]z4 z2 |
[V:3]z4 z2 |
[V:4]z4 z2 |
[V:1][E2G,2] [E2G,2] de |
[V:2]E2 E2 z2 |
[V:3]B,2 B,2 z2 |
[V:4]E,2 E,2 z2 |
[V:1][F2A,2] [F2A,2] =Bc |
[V:2]C2 C2 z2 |
[V:3]C2 C2 z2 |
[V:4]A,,2 A,,2 z2 |
[V:1][F2B,2] [F2B,2] [F2B,2] |
[V:2]D2 D2 D2 |
[V:3]B,2 D2 F2 |
[V:4]B,,2 D,2 F,2 |
[V:1][B,4F4] [_CF]B, |
[V:2]D4 a2 |
[V:3]B,4 z2 |
[V:4]B,,4 z2 |
[V:1][_CF]B, [CF]B, [CF]B, |
[V:2]a2 a2 a2 |
[V:3]z6 |
[V:4]z6 |
[V:1][B,4F4] DF |
[V:2]a4 z2 |
[V:3]z6 |
[V:4]z6 |
[V:1]AB df ac' |
[V:2][d6F6] |
[V:3]B,6- |
[V:4]A,,6 |
[V:1]c'b ag fe |
[V:2][e2E2] z4 |
[V:3]B,2 z4 |
[V:4]G,,2 z4 |
[V:1]B2 c2 d2 |
[V:2]B2 c2 d2 |
[V:3]G2 A2 B2 |
[V:4]G,2 A,2 B,2 |
[V:1]e2 z2 dc' |
[V:2]e2 z4 |
[V:3]E2 z4 |
[V:4]E,2 z4 |
[V:1]c'b ag fd |
[V:2]z4 B,A |
[V:3]z6 |
[V:4]z6 |
[V:1]e2 z2 Gf |
[V:2]AG FE D=B, |
[V:3]z6 |
[V:4]z6 |
[V:1]fe dc d=B |
[V:2]C2 z2 G,F |
[V:3]z6 |
[V:4]z6 |
[V:1]c2 z2 Fe |
[V:2]FE DC B,=A, |
[V:3]z6 |
[V:4]z6 |
[V:1]ed cB Fe |
[V:2]B,2 z2 C2 |
[V:3]z4 F2- |
[V:4]z4 =A,2 |
[V:1]ed cB b=a |
[V:2]D2 z4 |
[V:3]F2 z2 dc |
[V:4]B,2 z4 |
[V:1]gf ed cB |
[V:2]z6 |
[V:3]B=A GF ED |
[V:4]z6 |
[V:1]=AG FE DC |
[V:2]z6 |
[V:3]CB, =A,G, F,E, |
[V:4]z6 |
[V:1]B,2 B,2 B,2 |
[V:2]DF G=A Bc |
[V:3]D,2 D,2 D,2 |
[V:4]B,,D, E,F, G,=A, |
[V:1]B,2 z2 _dc |
[V:2]B2 z4 |
[V:3]D,2 z4 |
[V:4]B,2 z4 |
[V:1]_dc dc dc |
[V:2]B6 |
[V:3]=E2 E2 E2 |
[V:4]z6 |
[V:1]c4 _cB |
[V:2]A4 z2 |
[V:3]F4 z2 |
[V:4]z6 |
[V:1]_cB cB cB |
[V:2]A6 |
[V:3]D2 D2 D2 |
[V:4]z6 |
[V:1]B4 de |
[V:2]G4 z2 |
[V:3]E4 z2 |
[V:4]z6 |
[V:1][E2G,2] [E2G,2] de |
[V:2]E2 E2 z2 |
[V:3]B,2 B,2 z2 |
[V:4]E,2 E,2 z2 |
[V:1][F2A,2] [A,2F2] =Bc |
[V:2]C2 C2 z2 |
[V:3]C2 C2 z2 |
[V:4]A,,2 A,,2 z2 |
[V:1][F2B,2] [F2B,2] [F2B,2] |
[V:2]D2 D2 D2 |
[V:3]B,2 D2 F2 |
[V:4]B,,2 D,2 F,2 |
[V:1][B,4F4] [_CF]B, |
[V:2]D4 a2 |
[V:3]B,4 z2 |
[V:4]B,,4 z2 |
[V:1][_CF]B, [CF]B, [CF]B, |
[V:2]a2 a2 a2 |
[V:3]z6 |
[V:4]z6 |
[V:1][F4B,4] DF |
[V:2]a4 z2 |
[V:3]z6 |
[V:4]z6 |
[V:1]AB df ac' |
[V:2][d6F6] |
[V:3]B,6- |
[V:4]A,,6 |
[V:1]c'b ag fe |
[V:2][E2e2] z4 |
[V:3]B,2 z4 |
[V:4]G,,2 z4 |
[V:1]B2 c2 d2 |
[V:2]B2 c2 d2 |
[V:3]G2 A2 B2 |
[V:4]G,2 A,2 B,2 |
[V:1]e2 z2 g2 |
[V:2]e2 z4 |
[V:3]E2 z4 |
[V:4]E,2 z4 |
[V:1]g2 bz b2 |
[V:2]EB GB EB |
[V:3]E2 z4 |
[V:4]E,2 z4 |
[V:1]b2 e'z e'2 |
[V:2]EB GB EB |
[V:3]E2 z4 |
[V:4]E,2 z4 |
[V:1]d'2 d'e' f'g' |
[V:2]FB AB FB |
[V:3]F2 z4 |
[V:4]B,,2 z4 |
[V:1]a'2 z2 B2 |
[V:2]FB AB FB |
[V:3]D2 z4 |
[V:4]B,,2 z4 |
[V:1]B2 dz d2 |
[V:2]FB AB FB |
[V:3]D2 z4 |
[V:4]B,,2 z4 |
[V:1]d2 fz a2 |
[V:2]FB AB FB |
[V:3]A2 z2 D2 |
[V:4]B,,2 z4 |
[V:1]ag ba gf |
[V:2]EB GF ED |
[V:3]E2 z2 B,2 |
[V:4]E,2 z2 B,,2 |
[V:1]e2 z2 g2 |
[V:2]E2 z4 |
[V:3]E2 z4 |
[V:4]E,2 z4 |
[V:1]g2 c'z c'2 |
[V:2]Ec Gc Ec |
[V:3]E2 z4 |
[V:4]C,2 z4 |
[V:1]=b2 d'z d'2 |
[V:2]D=B FB DB |
[V:3]F2 z4 |
[V:4]G,2 z4 |
[V:1]e'2 g'f' e'd' |
[V:2]Ec ed c=B |
[V:3]E2 z4 |
[V:4]C,2 z2 G,,2 |
[V:1]c'2 z2 f2 |
[V:2]c2 z4 |
[V:3]z4 C2 |
[V:4]C,2 E,2 =A,,2 |
[V:1]f2 bz b2 |
[V:2]DB FB DB |
[V:3]D2 z4 |
[V:4]B,,2 z4 |
[V:1]=a2 c'z c'2 |
[V:2]E=A FA EA |
[V:3]C2 z4 |
[V:4]F,2 z4 |
[V:1]d'2 f'e' d'c' |
[V:2]DB dc B=A |
[V:3]B,2 z4 |
[V:4]B,,2 z2 F,2 |
[V:1]b2 z2 f'2 |
[V:2]B2 z2 F2 |
[V:3]D2 E2 F2 |
[V:4]B,,2 C,2 D,2 |
[V:1]f'2 g2 g2 |
[V:2]G=B cB cd |
[V:3]B,2 z4 |
[V:4]E,2 z4 |
[V:1]g4 e'2 |
[V:2]ed cB =AG |
[V:3]C2 z4 |
[V:4]C,2 z4 |
[V:1]e'2 f2 f2 |
[V:2]F=A BA Bc |
[V:3]C2 z4 |
[V:4]=A,,2 z4 |
[V:1]f4 d'2 |
[V:2]dc B=A GF |
[V:3]B,2 z4 |
[V:4]B,,2 z4 |
[V:1]d'c' e'c' b=a |
[V:2]FE GE DC |
[V:3]E,2 z2 F,2 |
[V:4]E,2 z2 F,2 |
[V:1]b2 z2 B2 |
[V:2]B,2 z4 |
[V:3]B,2 z4 |
[V:4]B,,2 B,,2 B,,2 |
[V:1]dz d2 ed/e/ |
[V:2]z6 |
[V:3]z2 B,2 C2 |
[V:4]B,,2 B,,2 B,,2 |
[V:1]f4 d2 |
[V:2]z4 B2 |
[V:3]D4 z2 |
[V:4]B,,2 B,,2 B,,2 |
[V:1]fz f2 gf/g/ |
[V:2]dz d2 ed/e/ |
[V:3]z2 F2 E2 |
[V:4]B,,2 B,,2 B,,2 |
[V:1]a2 z2 g2 |
[V:2]f2 z4 |
[V:3]D2 z4 |
[V:4]B,,2 z4 |
[V:1]g2 bz b2 |
[V:2]EB GB EB |
[V:3]E2 z4 |
[V:4]E,2 z4 |
[V:1]b2 e'z e'2 |
[V:2]EB GB EB |
[V:3]E2 z4 |
[V:4]E,2 z4 |
[V:1]d'2 d'e' f'g' |
[V:2]FB AB FB |
[V:3]F2 z4 |
[V:4]B,,2 z4 |
[V:1]a'2 z2 B2 |
[V:2]FB AB FB |
[V:3]D2 z4 |
[V:4]B,,2 z4 |
[V:1]B2 dz d2 |
[V:2]FB AB FB |
[V:3]D2 z4 |
[V:4]B,,2 z4 |
[V:1]d2 fz a2 |
[V:2]FB AB FB |
[V:3]A2 z2 D2 |
[V:4]B,,2 z4 |
[V:1]ag ba gf |
[V:2]EB GF ED |
[V:3]E2 z2 B,2 |
[V:4]E,2 z2 B,,2 |
[V:1]e2 z4 |]
[V:2]E2 z4 |]
[V:3]E2 z4 |]
[V:4]E,2 z4 |]

